X: 8692
T: Crossroads Fling, The
R: slide
M: 12/8
K: Dmajor
|:ABc|dcd f2 d e2 d B2 c|dcd a2 f e3 AA/B/c|
dcd f2 d e2 d B2 A|a2 g f2 e d3:|
|:d2 e|f2 f fed g2 g gfe|fdf a2 f e3 e2 g|
f2 f fed g2 g gfe|a2 g f2 e d3:|

